X:102
T:Siobhan O'Donnell's                                                                               
D:Mary Custy & Eoin O'Neill, With a lot of help from their friends                                  
R:jig                                                                                               
N:From Han Speek                                                                                    
M:6/8                                                                                               
L:1/8                                                                                               
K:Bm                                                                                                
def BAF|ABc B2e|fba fde|fBc BAF|\                                                                   
def BAF|~A3 Adf|fbb afe|dBA B3 :|                                                                   
|: b2b afe|fea fed|B/c/dB ABd|efd efa|\                                                             
bfa efd|BdB AFF|def afe|dBA B3 :|
